x-pack/platform/plugins/shared/content_connectors/public/assets/icons/custom.svg

<svg fill="none" height="100" viewBox="0 0 100 100" width="100" xmlns="http://www.w3.org/2000/svg" xmlns:xlink="http://www.w3.org/1999/xlink"><clipPath id="a"><path d="m0 0h100v100h-100z"/></clipPath><g clip-path="url(#a)"><path d="m50.8142 23.5717h-4.2c4.143 8.1938 6.3015 17.2469 6.3015 26.4286 0 9.1816-2.1585 18.2347-6.3015 26.4285h4.5714c7.0093 0 13.7316-2.7844 18.6879-7.7407s7.7407-11.6785 7.7407-18.6878-2.7844-13.7315-7.7407-18.6879c-4.9563-4.9563-11.6786-7.7407-18.6879-7.7407zm-.8142-23.5857279c-6.6174-.0042253-13.1691 1.3119779-19.2715 3.8714579 5.3516 4.32083 9.9142 9.53597 13.4857 15.41427h8.0714l.0715.0857c7.7784.5043 15.0733 3.9498 20.4037 9.637s8.2968 13.1897 8.2968 20.9844-2.9664 15.2973-8.2968 20.9845-12.6253 9.1327-20.4037 9.6369l-.0715.1001h-8.0714c-3.5715 5.8782-8.1341 11.0935-13.4857 15.4143 6.8282 2.8556 14.2051 4.1594 21.5985 3.8181 7.3933-.3415 14.6186-2.3201 21.1544-5.7929 6.5358-3.4729 12.2191-8.3534 16.6398-14.2894 4.4206-5.936 7.4683-12.7794 8.9231-20.0362 1.4547-7.2568 1.2807-14.7461-.5104-21.9274-1.791-7.1813-5.1539-13.8753-9.846-19.5991s-10.5964-10.33458-17.2868-13.49953c-6.6903-3.16494-13.9999-4.8051405-21.4011-4.8021979zm-10.8714 19.2857279c-3.4579-5.1394-7.7617-9.65573-12.7287-13.35712-7.308 3.93332-13.5268 9.61712-18.09986 16.54282 4.21966-2.0886 8.86316-3.1785 13.57146-3.1857zm0 61.4286h-17.2571c-4.7102-.005-9.3553-1.1002-13.57146-3.2 4.57606 6.9408 10.80566 12.6353 18.12846 16.5714 4.9508-3.7106 9.2437-8.2257 12.7001-13.3571zm2.6428-4.2858c4.4971-8.0826 6.8574-17.1791 6.8574-26.4285 0-9.2495-2.3603-18.346-6.8574-26.4286h-19.8999c-6.6584-.0024-13.07027 2.5194-17.94297 7.0571-.04357.1274-.09606.2515-.15712.3715 1.44454-1.374 3.03486-2.586 4.74278-3.6143-1.70792 1.0283-3.29824 2.2403-4.74278 3.6143-5.02806 12.1627-5.02806 25.823 0 37.9857.06106.12.11355.244.15712.3714 4.87578 4.5328 11.28557 7.0539 17.94297 7.0571z" fill="#0060d5"/></g></svg>

<svg xmlns="http://www.w3.org/2000/svg" width="100" height="100" fill="none"><clipPath id="a"><path d="M0 0h100v100H0z"/></clipPath><g clip-path="url(#a)"><path fill="#0060d5" d="M50.814 23.572h-4.2a58.57 58.57 0 0 1 0 52.857h4.572a26.429 26.429 0 1 0 0-52.857zM50-.014a49.7 49.7 0 0 0-19.271 3.871 59.6 59.6 0 0 1 13.485 15.415h8.072l.071.085a30.686 30.686 0 0 1 0 61.243l-.071.1h-8.072A59.6 59.6 0 0 1 30.73 96.115 50 50 0 0 0 90.12 79.85 50 50 0 0 0 50-.014M39.129 19.272a54.8 54.8 0 0 0-12.73-13.357A50.2 50.2 0 0 0 8.3 22.457a30.7 30.7 0 0 1 13.571-3.185zm0 61.428H21.872A30.5 30.5 0 0 1 8.3 77.5a50.16 50.16 0 0 0 18.128 16.572 55.3 55.3 0 0 0 12.7-13.357zm2.642-4.286a54.36 54.36 0 0 0 0-52.857h-19.9A26.32 26.32 0 0 0 3.93 30.615a3 3 0 0 1-.158.371 49.71 49.71 0 0 0 0 37.986q.092.18.158.371A26.37 26.37 0 0 0 21.872 76.4z"/></g></svg>
